public/images/ground.svg

<svg xmlns="http://www.w3.org/2000/svg" width="1512" height="720" fill="none" xmlns:v="https://vecta.io/nano"><path d="M2026.97 0H-729V720H2026.97V0Z" fill="#ff5834"/><path d="M-729 102.108S-527.696 552.5 740.922 552.5c1217.438 0 1286.048-450.392 1286.048-450.392v617.889H-729V102.108zm898.066 15.504c0 3.627 13.189 6.57 29.46 6.57s29.459-2.943 29.459-6.57-13.191-6.57-29.459-6.57-29.46 2.943-29.46 6.57zm-23.898 15.581c0 2.252 8.187 4.079 18.285 4.079s18.285-1.827 18.285-4.079-8.187-4.079-18.285-4.079-18.285 1.826-18.285 4.079zM1200.08 99.544c0 3.627 13.19 6.57 29.46 6.57s29.46-2.943 29.46-6.57-13.19-6.57-29.46-6.57-29.46 2.94-29.46 6.57zm-23.91 15.576c0 2.253 8.19 4.079 18.29 4.079s18.29-1.826 18.29-4.079-8.19-4.079-18.29-4.079-18.29 1.827-18.29 4.079zM638.602 401.767c0 3.627 13.188 6.571 29.459 6.571s29.46-2.944 29.46-6.571-13.189-6.57-29.46-6.57-29.459 2.94-29.459 6.57zm-5.626 19.655c10.099 0 18.285-1.826 18.285-4.078s-8.186-4.079-18.285-4.079-18.285 1.826-18.285 4.079 8.187 4.078 18.285 4.078zm870.574-162.969c0 3.627-13.19 6.57-29.46 6.57s-29.46-2.943-29.46-6.57 13.19-6.57 29.46-6.57 29.46 2.943 29.46 6.57zm23.91 15.581c0 2.253-8.19 4.079-18.29 4.079s-18.28-1.826-18.28-4.079 8.18-4.079 18.28-4.079 18.29 1.826 18.29 4.079zM815.947 83.369c0 2.039-.93 4.035-2.709 5.971-15.573 16.948-96.249 29.857-193.425 29.857S441.961 106.288 426.399 89.34c-1.793-1.937-2.719-3.932-2.719-5.971 0-19.788 87.816-35.828 196.133-35.828s196.134 16.04 196.134 35.828z" fill="#e6301f"/><path d="M813.242 89.34c-15.573 16.947-96.25 29.856-193.425 29.856S441.964 106.287 426.402 89.34c15.562-16.947 96.239-29.856 193.415-29.856S797.669 72.392 813.242 89.34z" fill="#ed4024"/><path d="M389.693 324.055c0 2.039-.93 4.035-2.709 5.971-15.573 16.948-96.249 29.857-193.425 29.857S15.707 346.974.145 330.026c-1.793-1.936-2.719-3.932-2.719-5.971 0-19.788 87.813-35.828 196.133-35.828s196.134 16.04 196.134 35.828z" fill="#e6301f"/><path d="M386.976 330.028c-15.573 16.947-96.249 29.856-193.425 29.856S15.699 346.975.137 330.028c15.562-16.948 96.239-29.857 193.414-29.857s177.852 12.909 193.425 29.857z" fill="#ed4024"/><path d="M476.963 249.05c0 .908-.412 1.793-1.205 2.657-6.927 7.54-42.828 13.284-86.068 13.284s-79.136-5.744-86.063-13.284c-.797-.864-1.209-1.749-1.209-2.657 0-8.804 39.076-15.941 87.272-15.941s87.273 7.137 87.273 15.941z" fill="#e6301f"/><path d="M475.752 251.706c-6.927 7.54-42.828 13.284-86.067 13.284s-79.137-5.744-86.064-13.284c6.923-7.54 42.824-13.284 86.064-13.284s79.14 5.744 86.067 13.284z" fill="#ed4024"/><path d="M1219.23 368.33c0 1.242-.56 2.455-1.65 3.634-9.48 10.322-58.6 18.179-117.77 18.179s-108.297-7.86-117.77-18.179c-1.091-1.179-1.657-2.395-1.657-3.634 0-12.049 53.467-21.816 119.427-21.816 65.95 0 119.42 9.767 119.42 21.816z" fill="#e6301f"/><path d="M1217.59 371.969c-9.48 10.322-58.61 18.178-117.78 18.178s-108.294-7.86-117.767-18.178c9.477-10.322 58.597-18.179 117.767-18.179s108.3 7.857 117.78 18.179z" fill="#ed4024"/><path d="M1646.87 111.039c0 1.242-.56 2.455-1.65 3.638-9.48 10.322-58.6 18.178-117.77 18.178s-108.3-7.86-117.77-18.178c-1.09-1.18-1.66-2.396-1.66-3.638 0-12.049 53.47-21.816 119.43-21.816 65.95.004 119.42 9.767 119.42 21.816z" fill="#e6301f"/><path d="M1645.22 114.677c-9.48 10.322-58.6 18.179-117.77 18.179s-108.3-7.86-117.77-18.179c9.48-10.322 58.6-18.178 117.77-18.178s108.29 7.856 117.77 18.178z" fill="#ed4024"/><path d="M970.739 160.994c0 1.018-.463 2.018-1.356 2.988-7.787 8.473-48.123 14.93-96.713 14.93s-88.926-6.453-96.709-14.93c-.896-.97-1.359-1.966-1.359-2.988 0-9.896 43.908-17.914 98.068-17.914s98.069 8.018 98.069 17.914z" fill="#e6301f"/><path d="M969.382 163.982c-7.786 8.474-48.122 14.931-96.712 14.931s-88.926-6.453-96.709-14.931c7.783-8.473 48.119-14.93 96.709-14.93s88.926 6.453 96.712 14.93z" fill="#ed4024"/></svg>

<svg width="1512" height="720" viewBox="0 0 1512 720" fill="none" xmlns="http://www.w3.org/2000/svg">
<path d="M2026.97 0H-729V720H2026.97V0Z" fill="#FF5834"/>
<path d="M-729 102.108C-729 102.108 -527.696 552.5 740.922 552.5C1958.36 552.5 2026.97 102.108 2026.97 102.108V719.997H-729V102.108Z" fill="#E6301F"/>
<path d="M169.066 117.612C169.066 121.239 182.255 124.182 198.526 124.182C214.797 124.182 227.985 121.239 227.985 117.612C227.985 113.985 214.794 111.042 198.526 111.042C182.258 111.042 169.066 113.985 169.066 117.612Z" fill="#E6301F"/>
<path d="M145.168 133.193C145.168 135.445 153.355 137.272 163.453 137.272C173.551 137.272 181.738 135.445 181.738 133.193C181.738 130.94 173.551 129.114 163.453 129.114C153.355 129.114 145.168 130.94 145.168 133.193Z" fill="#E6301F"/>
<path d="M1200.08 99.5439C1200.08 103.171 1213.27 106.114 1229.54 106.114C1245.81 106.114 1259 103.171 1259 99.5439C1259 95.9133 1245.81 92.9736 1229.54 92.9736C1213.27 92.9736 1200.08 95.9133 1200.08 99.5439Z" fill="#E6301F"/>
<path d="M1176.17 115.12C1176.17 117.373 1184.36 119.199 1194.46 119.199C1204.56 119.199 1212.75 117.373 1212.75 115.12C1212.75 112.868 1204.56 111.041 1194.46 111.041C1184.36 111.041 1176.17 112.868 1176.17 115.12Z" fill="#E6301F"/>
<path d="M638.602 401.767C638.602 405.394 651.79 408.338 668.061 408.338C684.332 408.338 697.521 405.394 697.521 401.767C697.521 398.141 684.332 395.197 668.061 395.197C651.79 395.197 638.602 398.137 638.602 401.767Z" fill="#E6301F"/>
<path d="M632.976 421.422C643.075 421.422 651.261 419.596 651.261 417.344C651.261 415.091 643.075 413.265 632.976 413.265C622.878 413.265 614.691 415.091 614.691 417.344C614.691 419.596 622.878 421.422 632.976 421.422Z" fill="#E6301F"/>
<path d="M1503.55 258.453C1503.55 262.08 1490.36 265.023 1474.09 265.023C1457.82 265.023 1444.63 262.08 1444.63 258.453C1444.63 254.826 1457.82 251.883 1474.09 251.883C1490.36 251.883 1503.55 254.826 1503.55 258.453Z" fill="#E6301F"/>
<path d="M1527.46 274.034C1527.46 276.287 1519.27 278.113 1509.17 278.113C1499.07 278.113 1490.89 276.287 1490.89 274.034C1490.89 271.781 1499.07 269.955 1509.17 269.955C1519.27 269.955 1527.46 271.781 1527.46 274.034Z" fill="#E6301F"/>
<path d="M815.947 83.3692C815.947 85.4086 815.017 87.4039 813.238 89.3404C797.665 106.288 716.989 119.197 619.813 119.197C522.638 119.197 441.961 106.288 426.399 89.3404C424.606 87.4039 423.68 85.4086 423.68 83.3692C423.68 63.5813 511.496 47.5415 619.813 47.5415C728.134 47.5415 815.947 63.5813 815.947 83.3692Z" fill="#E6301F"/>
<path d="M813.242 89.3398C797.669 106.287 716.992 119.196 619.817 119.196C522.641 119.196 441.964 106.287 426.402 89.3398C441.964 72.3924 522.641 59.4834 619.817 59.4834C716.992 59.4834 797.669 72.3924 813.242 89.3398Z" fill="#ED4024"/>
<path d="M389.693 324.055C389.693 326.094 388.763 328.09 386.984 330.026C371.411 346.974 290.735 359.883 193.559 359.883C96.3836 359.883 15.7071 346.974 0.145029 330.026C-1.64819 328.09 -2.57422 326.094 -2.57422 324.055C-2.57422 304.267 85.2384 288.227 193.559 288.227C301.88 288.227 389.693 304.267 389.693 324.055Z" fill="#E6301F"/>
<path d="M386.976 330.028C371.403 346.975 290.727 359.884 193.551 359.884C96.3753 359.884 15.6988 346.975 0.136719 330.028C15.6988 313.08 96.3753 300.171 193.551 300.171C290.727 300.171 371.403 313.08 386.976 330.028Z" fill="#ED4024"/>
<path d="M476.963 249.05C476.963 249.958 476.551 250.843 475.758 251.707C468.831 259.247 432.93 264.991 389.69 264.991C346.451 264.991 310.554 259.247 303.627 251.707C302.83 250.843 302.418 249.958 302.418 249.05C302.418 240.246 341.494 233.109 389.69 233.109C437.887 233.109 476.963 240.246 476.963 249.05Z" fill="#E6301F"/>
<path d="M475.752 251.706C468.825 259.246 432.924 264.99 389.685 264.99C346.445 264.99 310.548 259.246 303.621 251.706C310.544 244.166 346.445 238.422 389.685 238.422C432.924 238.422 468.825 244.166 475.752 251.706Z" fill="#ED4024"/>
<path d="M1219.23 368.33C1219.23 369.572 1218.67 370.785 1217.58 371.964C1208.1 382.286 1158.98 390.143 1099.81 390.143C1040.64 390.143 991.513 382.283 982.04 371.964C980.949 370.785 980.383 369.569 980.383 368.33C980.383 356.281 1033.85 346.514 1099.81 346.514C1165.76 346.514 1219.23 356.281 1219.23 368.33Z" fill="#E6301F"/>
<path d="M1217.59 371.969C1208.11 382.291 1158.98 390.147 1099.81 390.147C1040.64 390.147 991.516 382.287 982.043 371.969C991.52 361.647 1040.64 353.79 1099.81 353.79C1158.98 353.787 1208.11 361.647 1217.59 371.969Z" fill="#ED4024"/>
<path d="M1646.87 111.039C1646.87 112.281 1646.31 113.494 1645.22 114.677C1635.74 124.999 1586.62 132.855 1527.45 132.855C1468.28 132.855 1419.15 124.995 1409.68 114.677C1408.59 113.497 1408.02 112.281 1408.02 111.039C1408.02 98.9899 1461.49 89.2227 1527.45 89.2227C1593.4 89.2263 1646.87 98.9899 1646.87 111.039Z" fill="#E6301F"/>
<path d="M1645.22 114.677C1635.74 124.999 1586.62 132.856 1527.45 132.856C1468.28 132.856 1419.15 124.996 1409.68 114.677C1419.16 104.355 1468.28 96.499 1527.45 96.499C1586.62 96.499 1635.74 104.355 1645.22 114.677Z" fill="#ED4024"/>
<path d="M970.739 160.994C970.739 162.012 970.276 163.012 969.383 163.982C961.596 172.455 921.26 178.912 872.67 178.912C824.081 178.912 783.744 172.459 775.961 163.982C775.065 163.012 774.602 162.016 774.602 160.994C774.602 151.098 818.51 143.08 872.67 143.08C926.831 143.08 970.739 151.098 970.739 160.994Z" fill="#E6301F"/>
<path d="M969.382 163.982C961.596 172.456 921.26 178.913 872.67 178.913C824.08 178.913 783.744 172.46 775.961 163.982C783.744 155.509 824.08 149.052 872.67 149.052C921.26 149.052 961.596 155.505 969.382 163.982Z" fill="#ED4024"/>
</svg>
